X:1
T:Quick Step [45]
M:6/8
L:1/8
R:March
B:Stephen Grier music manuscript collection (Book 3, c. 1883, No. 102)
B: http://grier.itma.ie/book-three#?c=0&m=0&s=0&cv=38&z=42.0743%2C216.3329%2C3718.5972%2C1548.5147
N:Stephen Grier (c. 1824-1894) was a piper and fiddler from
N:Newpark, Bohey, Gortletteragh, south Co. Leitrim.
Z:AK/Fiddler’s Companion
K:G
D|GAB GAB|dcc c2c|BAG dcB|BAA A2D|
GAB GAB|dcc cec|Bc/d/G AB/c/F|GAG G2:|
|:A|B3 cBc|def gfe|dBd cAc|BGB AFD|
B3  cBc|def gfe|dBd cBc|DEF G2:|
|:B|AB/A/G F2D|G2B2d2|AB/A/G F2D|G2B d2B|
cBc def|gfe dcB|cBc DEF|AGG G2:|]

